X: 15554
T: Gloomy Winter
R: strathspey
M: 4/4
K: Aminor
A>A AB AG E2|c>c ce dc B2|A>A e>A AG E2|D>D EG A2 AB:|
ce gc Bc d2|c>B Ac Be E2|EE G>[EG] EA Bc/d/|c>B A/G/E/D/ EA A2||

